X:1
T: A Fair Wind to Greenland
C:
R:Reel
Q: 232
K:A
M:4/4
L:1/8
|:e|ag ae cA Ac|dc BA GB Eg|ag ae cA Aa|fd BG A3e|
ag ae cA Ac|dc BA GB Eg|ag ae cA Aa|fd BG A3B|
cB Ac dB B2|cB Ac Be ed|cB Ac df Bd|cA BG A2 AB|
cB Ac df Bd|cB Ac Be ed|cA ec fd ba|gb eg a3:|
